src/static/logos/unito.svg

<?xml version="1.0" encoding="UTF-8"?>
<svg width="256px" height="256px" viewBox="0 0 256 256" version="1.1" xmlns="http://www.w3.org/2000/svg" xmlns:xlink="http://www.w3.org/1999/xlink" preserveAspectRatio="xMidYMid">
	<g>
		<path d="M128,0 C57.458,0 0,56.889 0,128 C0,199.111 57.458,256 128,256 C198.542,256 256,198.542 256,128 C256,57.458 198.542,0 128,0" fill="#AADD00"></path>
		<path d="M211.6176,124.4325 C211.5336,101.6045 192.9426,83.0565 170.0976,83.0565 C148.9056,83.0565 130.5786,100.9395 129.1646,122.9525 C128.7746,126.7165 128.4416,130.6755 128.0006,135.3955 C128.0006,152.3015 114.7566,165.5455 97.8476,165.5455 C80.9426,165.5455 67.6976,152.3015 67.6976,135.3955 C67.6976,135.2135 67.6106,135.0605 67.5946,134.8825 C67.6036,134.7515 67.6696,134.6405 67.6696,134.5065 L67.6696,106.0625 C67.6696,102.9205 65.1226,100.3735 61.9816,100.3735 C58.8396,100.3735 56.2926,102.9205 56.2926,106.0625 L56.2926,134.5065 C56.2926,134.6895 56.3786,134.8425 56.3956,135.0195 C56.3866,135.1505 56.3196,135.2625 56.3196,135.3955 C56.3196,158.2955 74.9506,176.9235 97.8476,176.9235 C120.4896,176.9235 138.9266,158.7055 139.3396,136.1605 C139.8976,131.7965 140.3596,127.5685 140.5036,123.7925 C141.4866,107.6045 154.7616,94.4345 170.0976,94.4345 C187.0036,94.4345 200.2476,107.6795 200.2476,124.5875 C200.2476,124.6375 199.7126,154.0235 199.7126,154.0235 C199.6536,157.1675 202.1516,159.7625 205.2926,159.8235 L205.4036,159.8235 C208.4926,159.8235 211.0286,157.3455 211.0906,154.2455 C211.0906,154.2455 211.6196,124.5125 211.6176,124.4325" fill="#FFFFFF"></path>
	</g>
</svg>

<svg width="256" height="256" xmlns="http://www.w3.org/2000/svg" preserveAspectRatio="xMidYMid"><path d="M128 0C57.458 0 0 56.889 0 128c0 71.111 57.458 128 128 128s128-57.458 128-128S198.542 0 128 0" fill="#AD0"/><path d="M211.618 124.433c-.084-22.829-18.675-41.377-41.52-41.377-21.192 0-39.52 17.883-40.933 39.897-.39 3.763-.723 7.722-1.164 12.442 0 16.906-13.244 30.15-30.153 30.15-16.905 0-30.15-13.243-30.15-30.15 0-.181-.087-.335-.103-.513.009-.13.075-.242.075-.376v-28.444a5.689 5.689 0 10-11.377 0v28.444c0 .184.086.337.103.513-.01.131-.076.243-.076.376 0 22.9 18.63 41.528 41.528 41.528 22.642 0 41.079-18.218 41.492-40.762.558-4.364 1.02-8.593 1.164-12.368.983-16.189 14.258-29.359 29.594-29.359 16.906 0 30.15 13.246 30.15 30.154l-.535 29.436a5.692 5.692 0 005.58 5.8h.11a5.694 5.694 0 005.688-5.579s.529-29.733.527-29.813" fill="#FFF"/></svg>
